X:177
T: KEIN BESSER LEBEN IST AUF DIESER WELT
N: E1319A
O: Europa, Mitteleuropa, Deutschland
R: Staende -, Soldaten -, Kriegs - Lied
M: 4/4
L: 1/8
K: G
D2 | G2B2B2d2 | d4c2
B2 | c3ed2c2 | c2B2z2
D2 | G2B2B2d2 | d4c2
B2 | c3ed2c2 | c2B2z2
d2 | d3AA2d2 | d4^c2
d2 | e3^cA2G2 | G2F2z2
D2 | G2B2B2d2 | d4c2
B2 | c3edcBA | G2
GGB2BB | d2ddg4- | g2z4

@@@ Tune index: 4861
